public/icons/solana.svg

<svg width="180" height="28" viewBox="0 0 180 28" fill="none" xmlns="http://www.w3.org/2000/svg">
    <path
        d="M29.8335 21.4663L24.8826 26.7816C24.7755 26.8971 24.6459 26.9892 24.5016 27.0522C24.3574 27.1153 24.2018 27.1479 24.0444 27.1481H0.575229C0.463295 27.148 0.353806 27.1153 0.26017 27.0539C0.166536 26.9925 0.0928202 26.905 0.0480471 26.8023C0.00327405 26.6996 -0.0106119 26.586 0.00809081 26.4755C0.0267935 26.365 0.077269 26.2624 0.153343 26.1801L5.09864 20.8648C5.20573 20.7493 5.3354 20.6572 5.47962 20.5942C5.62382 20.5311 5.77947 20.4985 5.93682 20.4983H29.406C29.5189 20.496 29.6301 20.5272 29.7254 20.5879C29.8206 20.6487 29.8961 20.7363 29.9416 20.8398C29.9874 20.9432 30.0014 21.0579 29.9821 21.1694C29.9629 21.2809 29.9112 21.3842 29.8335 21.4663ZM24.8826 10.76C24.7751 10.6451 24.6453 10.5534 24.5012 10.4903C24.3571 10.4273 24.2017 10.3944 24.0444 10.3936H0.575229C0.463295 10.3936 0.353806 10.4264 0.26017 10.4878C0.166536 10.5492 0.0928202 10.6366 0.0480471 10.7394C0.00327405 10.8421 -0.0106119 10.9556 0.00809081 11.0661C0.0267935 11.1767 0.077269 11.2793 0.153343 11.3615L5.09864 16.6797C5.20612 16.7946 5.3359 16.8864 5.48001 16.9494C5.62412 17.0124 5.77958 17.0453 5.93682 17.0461H29.406C29.5178 17.0455 29.6267 17.0124 29.7201 16.9508C29.8134 16.8892 29.8866 16.8017 29.931 16.6991C29.9754 16.5965 29.9891 16.4831 29.9701 16.3729C29.9514 16.2626 29.9011 16.1602 29.8251 16.0782L24.8826 10.76ZM0.575229 6.94139H24.0444C24.2018 6.94125 24.3574 6.9086 24.5016 6.84554C24.6459 6.78251 24.7755 6.69036 24.8826 6.57491L29.8335 1.25958C29.9112 1.17748 29.9629 1.07419 29.9821 0.962708C30.0014 0.851229 29.9874 0.736538 29.9416 0.633067C29.8961 0.529598 29.8206 0.441972 29.7254 0.381217C29.6301 0.320461 29.5189 0.28929 29.406 0.291626H5.93682C5.77947 0.291792 5.62382 0.324419 5.47962 0.387471C5.3354 0.450524 5.20573 0.54265 5.09864 0.658105L0.153343 5.97343C0.077269 6.05565 0.0267935 6.15832 0.00809081 6.26883C-0.0106119 6.37933 0.00327405 6.49288 0.0480471 6.59561C0.0928202 6.69834 0.166536 6.78576 0.26017 6.84717C0.353806 6.9086 0.463295 6.94133 0.575229 6.94139Z"
        fill="url(#paint0_linear_446_1182)" />
    <path
        d="M58.4464 11.6504H45.8904V7.51006H61.7097V3.36969H45.8485C45.3065 3.36675 44.7695 3.47071 44.2677 3.67563C43.7659 3.88058 43.3091 4.18246 42.9241 4.56408C42.5388 4.94569 42.2323 5.39956 42.0222 5.89974C41.8121 6.39994 41.7023 6.93668 41.6995 7.47929V11.6756C41.7017 12.2187 41.8107 12.7561 42.0205 13.2569C42.2303 13.7577 42.5365 14.2122 42.9218 14.5944C43.3074 14.9767 43.7642 15.2791 44.2663 15.4843C44.7683 15.6896 45.3062 15.7937 45.8485 15.7908H58.4213V19.9312H41.9984V24.0716H58.4464C58.9884 24.0745 59.5254 23.9705 60.0272 23.7656C60.529 23.5607 60.9856 23.2588 61.3708 22.8772C61.7561 22.4956 62.0626 22.0417 62.2727 21.5415C62.4828 21.0413 62.5926 20.5046 62.5954 19.962V15.7656C62.5932 15.2225 62.4842 14.6852 62.2744 14.1844C62.0646 13.6835 61.7584 13.229 61.3731 12.8468C60.9875 12.4646 60.5307 12.1622 60.0286 11.9569C59.5266 11.7517 58.9887 11.6475 58.4464 11.6504Z"
        fill="white" />
    <path
        d="M82.7705 3.36928H70.167C69.6242 3.36486 69.0858 3.46772 68.5826 3.672C68.0797 3.87628 67.6217 4.17791 67.2353 4.55969C66.8487 4.94144 66.5413 5.39579 66.3307 5.89672C66.1197 6.39765 66.0096 6.93531 66.0068 7.47888V19.9615C66.0096 20.5051 66.1197 21.0428 66.3307 21.5437C66.5413 22.0446 66.8487 22.499 67.2353 22.8807C67.6217 23.2625 68.0797 23.5641 68.5826 23.7684C69.0858 23.9727 69.6242 24.0756 70.167 24.0711H82.7705C83.3126 24.0741 83.8496 23.9701 84.3514 23.7652C84.8532 23.5603 85.31 23.2584 85.695 22.8768C86.0803 22.4951 86.3868 22.0413 86.5969 21.5411C86.807 21.0409 86.9168 20.5042 86.9196 19.9615V7.47888C86.9168 6.93626 86.807 6.39953 86.5969 5.89933C86.3868 5.39915 86.0803 4.94528 85.695 4.56366C85.31 4.18205 84.8532 3.88017 84.3514 3.67522C83.8496 3.4703 83.3126 3.36634 82.7705 3.36928ZM82.7398 19.9308H70.1978V7.50965H82.7342L82.7398 19.9308Z"
        fill="white" />
    <path
        d="M126.915 3.36945H114.622C114.08 3.36651 113.543 3.47047 113.041 3.67539C112.539 3.88034 112.082 4.18222 111.697 4.56383C111.312 4.94545 111.005 5.39932 110.795 5.89949C110.585 6.3997 110.475 6.93643 110.473 7.47905V24.0713H114.664V17.2705H126.901V24.0713H131.092V7.47905C131.089 6.93406 130.979 6.39502 130.767 5.89298C130.555 5.39096 130.246 4.93585 129.858 4.55385C129.47 4.17187 129.01 3.87057 128.505 3.6673C127.999 3.46403 127.459 3.36282 126.915 3.36945ZM126.884 13.1301H114.647V7.50982H126.884V13.1301Z"
        fill="white" />
    <path
        d="M175.851 3.36969H163.558C163.016 3.36675 162.479 3.47071 161.977 3.67563C161.475 3.88058 161.019 4.18246 160.633 4.56408C160.248 4.94569 159.942 5.39956 159.731 5.89974C159.521 6.39994 159.411 6.93668 159.409 7.47929V24.0716H163.6V17.2707H175.809V24.0716H180V7.47929C179.997 6.93668 179.888 6.39994 179.677 5.89974C179.467 5.39956 179.161 4.94569 178.776 4.56408C178.39 4.18246 177.934 3.88058 177.432 3.67563C176.93 3.47071 176.393 3.36675 175.851 3.36969ZM175.809 13.1303H163.572V7.51006H175.809V13.1303Z"
        fill="white" />
    <path
        d="M151.502 19.9312H149.825L143.832 5.10415C143.627 4.59261 143.274 4.15421 142.818 3.84519C142.362 3.53615 141.824 3.37056 141.273 3.36966H137.554C137.193 3.36782 136.835 3.43728 136.5 3.57405C136.165 3.71085 135.861 3.91228 135.604 4.16685C135.347 4.42146 135.143 4.72418 135.003 5.05782C134.863 5.39143 134.79 5.7494 134.788 6.11126V24.0715H138.979V7.51004H140.656L146.646 22.3371C146.855 22.8476 147.211 23.2842 147.669 23.5912C148.126 23.8981 148.665 24.0615 149.216 24.0603H152.935C153.297 24.0622 153.655 23.9928 153.989 23.856C154.324 23.7192 154.628 23.5177 154.885 23.2631C155.142 23.0086 155.346 22.7058 155.486 22.3722C155.626 22.0386 155.699 21.6806 155.701 21.3187V3.36966H151.502V19.9312Z"
        fill="white" />
    <path
        d="M94.8125 3.36963H90.6216V19.9619C90.6244 20.5057 90.7347 21.0436 90.9457 21.5447C91.1566 22.0458 91.4642 22.5003 91.8509 22.8821C92.2376 23.2639 92.6961 23.5655 93.1993 23.7696C93.7027 23.9737 94.2414 24.0763 94.7846 24.0715H107.357V19.9311H94.8125V3.36963Z"
        fill="white" />
    <defs>
        <linearGradient id="paint0_linear_446_1182" x1="2.531" y1="27.7888" x2="27.1756" y2="0.0405572"
            gradientUnits="userSpaceOnUse">
            <stop offset="0.08" stop-color="#9945FF" />
            <stop offset="0.3" stop-color="#8752F3" />
            <stop offset="0.5" stop-color="#5497D5" />
            <stop offset="0.6" stop-color="#43B4CA" />
            <stop offset="0.72" stop-color="#28E0B9" />
            <stop offset="0.97" stop-color="#19FB9B" />
        </linearGradient>
    </defs>
</svg>

<svg width="180" height="28" fill="none" xmlns="http://www.w3.org/2000/svg"><path d="m29.834 21.466-4.951 5.316a1.143 1.143 0 0 1-.839.366H.575a.575.575 0 0 1-.422-.968L5.1 20.865a1.144 1.144 0 0 1 .838-.367h23.469a.573.573 0 0 1 .428.968zM24.883 10.76a1.159 1.159 0 0 0-.839-.366H.575a.575.575 0 0 0-.422.967L5.1 16.68a1.157 1.157 0 0 0 .838.366h23.469a.576.576 0 0 0 .42-.968l-4.943-5.318zM.575 6.941h23.47a1.143 1.143 0 0 0 .838-.366l4.95-5.315a.573.573 0 0 0-.427-.968H5.936A1.144 1.144 0 0 0 5.1.658L.153 5.973a.577.577 0 0 0 .422.968z" fill="url(#a)"/><path d="M58.446 11.65H45.89V7.51h15.82V3.37H45.849a4.122 4.122 0 0 0-3.827 2.53c-.21.5-.32 1.037-.322 1.58v4.196a4.136 4.136 0 0 0 2.566 3.808c.502.206 1.04.31 1.583.307H58.42v4.14H41.998v4.14h16.448a4.123 4.123 0 0 0 3.827-2.53c.21-.5.32-1.036.322-1.579v-4.196a4.135 4.135 0 0 0-2.566-3.81 4.124 4.124 0 0 0-1.583-.306zM82.77 3.37H70.168a4.123 4.123 0 0 0-3.836 2.527 4.13 4.13 0 0 0-.324 1.582v12.483a4.13 4.13 0 0 0 4.16 4.11H82.77a4.12 4.12 0 0 0 3.827-2.53c.21-.501.32-1.038.323-1.58V7.479a4.134 4.134 0 0 0-2.569-3.804 4.122 4.122 0 0 0-1.58-.306zm-.03 16.56H70.198V7.51h12.536l.006 12.42zM126.915 3.37h-12.293a4.123 4.123 0 0 0-3.827 2.53 4.12 4.12 0 0 0-.322 1.579v16.592h4.191v-6.8h12.237v6.8h4.191V7.48a4.135 4.135 0 0 0-2.587-3.812 4.13 4.13 0 0 0-1.59-.298zm-.031 9.76h-12.237V7.51h12.237v5.62zM175.851 3.37h-12.293a4.123 4.123 0 0 0-3.827 2.53 4.12 4.12 0 0 0-.322 1.58v16.592h4.191V17.27h12.209v6.8H180V7.48a4.133 4.133 0 0 0-2.568-3.804 4.123 4.123 0 0 0-1.581-.305zm-.042 9.76h-12.237V7.51h12.237v5.62zM151.502 19.931h-1.677l-5.993-14.827a2.761 2.761 0 0 0-2.559-1.734h-3.719a2.751 2.751 0 0 0-2.766 2.741v17.96h4.191V7.51h1.677l5.99 14.827a2.775 2.775 0 0 0 2.57 1.723h3.719a2.742 2.742 0 0 0 1.95-.797 2.752 2.752 0 0 0 .816-1.944V3.369h-4.199v16.562zM94.813 3.37h-4.191v16.592a4.134 4.134 0 0 0 4.163 4.11h12.572v-4.14H94.813V3.37z" fill="#fff"/><defs><linearGradient id="a" x1="2.531" y1="27.789" x2="27.176" y2=".041" gradientUnits="userSpaceOnUse"><stop offset=".08" stop-color="#9945FF"/><stop offset=".3" stop-color="#8752F3"/><stop offset=".5" stop-color="#5497D5"/><stop offset=".6" stop-color="#43B4CA"/><stop offset=".72" stop-color="#28E0B9"/><stop offset=".97" stop-color="#19FB9B"/></linearGradient></defs></svg>
